X:1
M:4/4
K:D
F/2|G/2B/2A/2B/2 dd/2d/2|B/2c/2B/2A/2 A/2B/2A/2F/2|\
G/2F/2A/2F/2 B/2A/2F/2D/2|G/2A/2B/2c/2 d/2e/2f/2g/2|
e/2d/2c/2B/2 A/2F/2G/2G/2|F/2d/2d/2B/2 A/2F/2G/2A/2|\
B/2G/2B/2d/2 c/2d/2e/2c/2|df:|
K:G
d/2B/2c/2d/2 e/2d/2B/2A/2|c/2d/2c/2B/2 AA|B3/2B/2 A/2c/2B/2A/2|\
AB/2A/2 G:|